X:556
T: Zhengtu gaochang gemingge
N: C1975
O: China, Guangdong Xingning
S: II, 384]
R: Shange, Luogang shange]
M: 3/8
L: 1/16
K: D
B2B2d2 | edd2B2 | B2e2ed | B2B4
B2deed | B2BdB2 | B2efd2- | d6
B2effe | B2B4
B6 | B2B2d2 | edd2B2 | B2e2ed | B2B4
B2deed | B2BdB2 | B2efd2- | d6
B2effe | B2B4 | B6

